assets/icons/functional/media/eject.svg

<svg width="32" height="32" viewBox="0 0 32 32" fill="none" xmlns="http://www.w3.org/2000/svg"><g id="Icon-Eject"><g clip-path="url(#clip0_12_3746)"><g id="size=md (32px)"><path id="Vector" d="M15.2628 4.80004L5.55027 15.325C5.41934 15.4682 5.33286 15.6463 5.30136 15.8377C5.26986 16.0291 5.29471 16.2255 5.37287 16.403C5.45104 16.5805 5.57914 16.7315 5.74159 16.8375C5.90403 16.9435 6.0938 17 6.28777 17H25.7128C25.9067 17 26.0965 16.9435 26.259 16.8375C26.4214 16.7315 26.5495 16.5805 26.6277 16.403C26.7058 16.2255 26.7307 16.0291 26.6992 15.8377C26.6677 15.6463 26.5812 15.4682 26.4503 15.325L16.7378 4.80004C16.6451 4.696 16.5315 4.61274 16.4044 4.55573C16.2773 4.49871 16.1396 4.46924 16.0003 4.46924C15.861 4.46924 15.7232 4.49871 15.5961 4.55573C15.469 4.61274 15.3554 4.696 15.2628 4.80004V4.80004Z" stroke="#101828" stroke-width="2" stroke-linecap="round" stroke-linejoin="round"/><path id="Vector_2" d="M5 22V25C5 25.5523 5.44772 26 6 26H26C26.5523 26 27 25.5523 27 25V22C27 21.4477 26.5523 21 26 21H6C5.44772 21 5 21.4477 5 22Z" stroke="#101828" stroke-width="2" stroke-linecap="round" stroke-linejoin="round"/></g></g></g><defs><clipPath id="clip0_12_3746"><rect width="32" height="32" rx="5" fill="white"/></clipPath></defs></svg>

<svg xmlns="http://www.w3.org/2000/svg" width="32" height="32" fill="none"><g clip-path="url(#a)"><path stroke="#101828" stroke-linecap="round" stroke-linejoin="round" stroke-width="2" d="M15.262 4.8 5.55 15.325A1 1 0 0 0 6.287 17h19.425a1 1 0 0 0 .738-1.675L16.738 4.8a.987.987 0 0 0-1.476 0v0ZM5 22v3a1 1 0 0 0 1 1h20a1 1 0 0 0 1-1v-3a1 1 0 0 0-1-1H6a1 1 0 0 0-1 1Z"/></g><defs><clipPath id="a"><rect width="32" height="32" fill="#fff" rx="5"/></clipPath></defs></svg>
